src/images/retention-1-mobile.svg

<svg xmlns="http://www.w3.org/2000/svg" width="348" height="343" fill="none" viewBox="0 0 348 343"><rect width="348" height="342.465" fill="#35416B" rx="45.998"/><g clip-path="url(#clip0)"><path fill="#F78A01" fill-rule="evenodd" d="M324.539 101.764L61.2329 132.287L61.4009 295.661L99.4908 290.309L98.6132 271.366L130.668 266.461L129.608 247L162.682 242.933L161.804 222.951L194.82 218.67L194.216 199.786L226.85 195.95L226.609 175.111L259.387 171.351L259.582 150.791L291.645 147.142L291.964 126.892L325.013 123.286L324.539 101.764Z" clip-rule="evenodd"/><path fill="#FFAE48" fill-rule="evenodd" d="M325.555 101.907L291.566 85.8678L28.3386 116.589L61.4686 132.976L325.555 101.907Z" clip-rule="evenodd"/><path fill="#E17D00" fill-rule="evenodd" d="M61.3359 133.106L28.8669 116.781L28.7125 278.803L61.7964 295.127L61.3359 133.106Z" clip-rule="evenodd"/><path fill="#FFE5B0" fill-rule="evenodd" d="M194.254 179.49L194.37 197.281L224.71 193.8L224.54 175.572L194.254 179.49Z" clip-rule="evenodd" opacity=".5"/><path fill="#FFD98C" fill-rule="evenodd" d="M161.522 183.874L161.639 201.668L191.978 198.184L191.808 179.959L161.522 183.874Z" clip-rule="evenodd" opacity=".5"/><path fill="#FFCA61" fill-rule="evenodd" d="M129.159 188.662L129.275 206.456L159.615 202.972L159.444 184.744L129.159 188.662Z" clip-rule="evenodd" opacity=".5"/><path fill="#FFBD3A" fill-rule="evenodd" d="M96.7792 193.152L96.8957 210.94L127.235 207.459L127.065 189.231L96.7792 193.152Z" clip-rule="evenodd" opacity=".5"/><path fill="#FFB218" fill-rule="evenodd" d="M64.1774 197.75L64.2939 215.544L94.6337 212.06L94.4847 193.832L64.1774 197.75Z" clip-rule="evenodd" opacity=".5"/><path fill="#FFE5B0" fill-rule="evenodd" d="M194.644 159.155L194.758 176.947L225.098 173.463L224.927 155.238L194.644 159.155Z" clip-rule="evenodd" opacity=".5"/><path fill="#FFD98C" fill-rule="evenodd" d="M161.91 163.542L162.026 181.333L192.366 177.849L192.195 159.624L161.91 163.542Z" clip-rule="evenodd" opacity=".5"/><path fill="#FFCA61" fill-rule="evenodd" d="M129.552 168.33L129.668 186.121L160.008 182.637L159.837 164.413L129.552 168.33Z" clip-rule="evenodd" opacity=".5"/><path fill="#FFBD3A" fill-rule="evenodd" d="M97.1693 172.82L97.2858 190.611L127.626 187.127L127.463 168.916L97.1693 172.82Z" clip-rule="evenodd" opacity=".5"/><path fill="#FFB218" fill-rule="evenodd" d="M64.5648 177.418L64.6867 195.215L95.0265 191.734L94.8586 173.506L64.5648 177.418Z" clip-rule="evenodd" opacity=".5"/><path fill="#FFF4DE" fill-rule="evenodd" d="M259.633 130.766L259.75 148.557L290.09 145.076L289.919 126.848L259.633 130.766Z" clip-rule="evenodd" opacity=".5"/><path fill="#fff" fill-rule="evenodd" d="M292.506 107.257L292.623 125.048L322.962 121.567L322.792 103.339L292.506 107.257Z" clip-rule="evenodd" opacity=".5"/><path fill="#FFF4DE" fill-rule="evenodd" d="M259.75 111.261L259.866 129.055L290.206 125.571L290.036 107.344L259.75 111.261Z" clip-rule="evenodd" opacity=".5"/><path fill="#FFECC6" fill-rule="evenodd" d="M227.178 115.694L227.295 133.488L257.634 130.004L257.464 111.776L227.178 115.694Z" clip-rule="evenodd" opacity=".5"/><path fill="#FFE5B0" fill-rule="evenodd" d="M194.614 120.141L194.731 137.932L225.07 134.451L224.9 116.223L194.614 120.141Z" clip-rule="evenodd" opacity=".5"/><path fill="#FFD98C" fill-rule="evenodd" d="M161.88 124.519L161.996 142.313L192.336 138.829L192.165 120.602L161.88 124.519Z" clip-rule="evenodd" opacity=".5"/><path fill="#FFCA61" fill-rule="evenodd" d="M129.522 129.307L129.638 147.098L159.978 143.617L159.81 125.39L129.522 129.307Z" clip-rule="evenodd" opacity=".5"/><path fill="#FFBD3A" fill-rule="evenodd" d="M97.1395 133.797L97.2559 151.588L127.596 148.107L127.433 129.874L97.1395 133.797Z" clip-rule="evenodd" opacity=".5"/><path fill="#FFB218" fill-rule="evenodd" d="M64.535 138.395L64.6515 156.187L94.9913 152.705L94.8315 134.483L64.535 138.395Z" clip-rule="evenodd" opacity=".5"/><path fill="#FFECC6" fill-rule="evenodd" d="M226.95 135.568L227.067 153.359L257.407 149.878L257.236 131.65L226.95 135.568Z" clip-rule="evenodd" opacity=".5"/><path fill="#FFECC6" fill-rule="evenodd" d="M227.146 155.36L227.262 173.151L257.602 169.67L257.431 151.442L227.146 155.36Z" clip-rule="evenodd" opacity=".5"/><path fill="#FFE5B0" fill-rule="evenodd" d="M194.617 139.634L194.733 157.426L225.073 153.942L224.903 135.717L194.617 139.634Z" clip-rule="evenodd" opacity=".5"/><path fill="#FFD98C" fill-rule="evenodd" d="M161.885 144.019L162.002 161.812L192.341 158.328L192.171 140.101L161.885 144.019Z" clip-rule="evenodd" opacity=".5"/><path fill="#FFCA61" fill-rule="evenodd" d="M129.524 148.807L129.641 166.598L159.981 163.117L159.81 144.889L129.524 148.807Z" clip-rule="evenodd" opacity=".5"/><path fill="#FFBD3A" fill-rule="evenodd" d="M97.1422 153.296L97.2587 171.088L127.598 167.606L127.428 149.379L97.1422 153.296Z" clip-rule="evenodd" opacity=".5"/><path fill="#FFB218" fill-rule="evenodd" d="M64.5378 157.895L64.6543 175.686L94.9941 172.205L94.8234 153.977L64.5378 157.895Z" clip-rule="evenodd" opacity=".5"/><path fill="#FFD98C" fill-rule="evenodd" d="M161.338 203.463L161.863 220.684L192.312 216.748L191.68 199.615L161.338 203.463Z" clip-rule="evenodd" opacity=".5"/><path fill="#FFCA61" fill-rule="evenodd" d="M128.98 208.251L129.506 225.472L159.954 221.536L159.323 204.403L128.98 208.251Z" clip-rule="evenodd" opacity=".5"/><path fill="#FFBD3A" fill-rule="evenodd" d="M96.595 212.74L97.1205 229.962L127.569 226.026L126.937 208.893L96.595 212.74Z" clip-rule="evenodd" opacity=".5"/><path fill="#FFB218" fill-rule="evenodd" d="M63.9905 217.339L64.5188 234.561L94.9669 230.624L94.3358 213.491L63.9905 217.339Z" clip-rule="evenodd" opacity=".5"/><path fill="#FFCA61" fill-rule="evenodd" d="M129.159 227.441L129.684 244.663L160.132 240.726L159.499 223.596L129.159 227.441Z" clip-rule="evenodd" opacity=".5"/><path fill="#FFBD3A" fill-rule="evenodd" d="M96.7656 231.931L97.3074 249.152L127.756 245.216L127.124 228.083L96.7656 231.931Z" clip-rule="evenodd" opacity=".5"/><path fill="#FFB218" fill-rule="evenodd" d="M64.1639 236.529L64.6868 253.751L95.1322 249.817L94.501 232.684L64.1639 236.529Z" clip-rule="evenodd" opacity=".5"/><path fill="#FFBD3A" fill-rule="evenodd" d="M96.9851 250.766L97.5133 267.987L127.959 264.051L127.33 246.918L96.9851 250.766Z" clip-rule="evenodd" opacity=".5"/><path fill="#FFB218" fill-rule="evenodd" d="M64.3834 255.364L64.9089 272.586L95.357 268.649L94.7259 251.517L64.3834 255.364Z" clip-rule="evenodd" opacity=".5"/><path fill="#FFB218" fill-rule="evenodd" d="M64.9305 274.416L65.4561 291.638L95.9042 287.701L95.273 270.571L64.9305 274.416Z" clip-rule="evenodd" opacity=".5"/></g><path fill="#5D8ECC" fill-rule="evenodd" d="M66.2537 69.9156L66.5318 117.407L84.1016 125.773L83.6532 78.9206L66.2537 69.9156Z" clip-rule="evenodd"/><path fill="#5D8ECC" fill-rule="evenodd" d="M148.047 59.5234L148.326 107.015L165.895 115.381L165.447 68.5283L148.047 59.5234Z" clip-rule="evenodd"/><path fill="#5D8ECC" fill-rule="evenodd" d="M227.762 51.4399L228.04 98.9314L245.61 107.298L245.164 60.4449L227.762 51.4399Z" clip-rule="evenodd"/><path fill="#769FD1" fill-rule="evenodd" d="M83.5029 78.9757L124.29 74.0825L124.713 121.637L83.9663 125.806L83.5029 78.9757Z" clip-rule="evenodd"/><path fill="#769FD1" fill-rule="evenodd" d="M165.299 68.5834L206.083 63.6903L206.499 111.244L165.76 115.414L165.299 68.5834Z" clip-rule="evenodd"/><path fill="#769FD1" fill-rule="evenodd" d="M245.013 60.5L285.805 55.6068L286.221 103.161L245.469 107.328L245.013 60.5Z" clip-rule="evenodd"/><path fill="#9ABCE6" fill-rule="evenodd" d="M66.2387 70.0684L83.5254 78.9656L124.127 74.0875L108.964 65.4782L66.2387 70.0684Z" clip-rule="evenodd"/><path fill="#9ABCE6" fill-rule="evenodd" d="M148.032 59.6761L165.319 68.5734L205.92 63.6953L190.761 55.0835L148.032 59.6761Z" clip-rule="evenodd"/><path fill="#9ABCE6" fill-rule="evenodd" d="M227.749 51.5926L245.036 60.4899L285.637 55.6118L270.477 47L227.749 51.5926Z" clip-rule="evenodd"/><path fill="#fff" fill-rule="evenodd" d="M93.0993 82.476C90.4272 82.7423 88.3992 85.0024 88.4229 87.6876L88.6368 111.949C88.664 115.037 91.365 117.418 94.4323 117.059L115.942 114.538C118.581 114.229 120.56 111.977 120.529 109.32L120.244 85.4439C120.207 82.3982 117.569 80.0381 114.538 80.34L93.0993 82.476Z" clip-rule="evenodd"/><path fill="#fff" fill-rule="evenodd" d="M174.193 72.1304C171.516 72.3922 169.483 74.6546 169.507 77.3437L169.725 101.61C169.752 104.694 172.446 107.074 175.51 106.721L197.588 104.178C200.232 103.874 202.218 101.619 202.185 98.9578L201.894 75.081C201.856 72.0397 199.224 69.6816 196.197 69.9778L174.193 72.1304Z" clip-rule="evenodd"/><path fill="#fff" fill-rule="evenodd" d="M255.283 63.414C252.603 63.6727 250.566 65.9366 250.591 68.6285L250.802 91.8435C250.83 94.9238 253.518 97.3023 256.579 96.9544L278.088 94.5097C280.736 94.2088 282.726 91.9522 282.693 89.2877L282.412 66.4475C282.374 63.4089 279.747 61.052 276.722 61.344L255.283 63.414Z" clip-rule="evenodd"/><path fill="#000" d="M111.641 90.7858L107.632 92.1596C107.499 92.2052 107.477 92.3848 107.595 92.4612L109.081 93.4247L105.409 99.0892L102.858 97.4372C102.7 97.3348 102.492 97.3814 102.391 97.5368L97.1646 105.602C97.1405 105.64 97.1322 105.685 97.1415 105.729C97.1508 105.773 97.177 105.811 97.2144 105.835L98.3432 106.571C98.4208 106.621 98.5262 106.599 98.5766 106.521L103.073 99.5877L105.622 101.24C105.779 101.34 105.988 101.296 106.089 101.141L110.499 94.3423L111.986 95.3058C112.012 95.323 112.043 95.3323 112.075 95.3328C112.106 95.3333 112.138 95.3248 112.165 95.3085C112.192 95.2921 112.214 95.2685 112.228 95.2402C112.243 95.212 112.249 95.1803 112.246 95.1488L111.864 90.9283C111.856 90.8199 111.745 90.7484 111.641 90.7858Z"/><path fill="#000" d="M193.676 84.5488L188.893 84.6634L188.842 82.5521C188.834 82.2214 188.561 81.9606 188.23 81.9686L180.607 82.1513L180.589 81.4039C180.587 81.3217 180.518 81.2561 180.436 81.258L179.39 81.2831C179.307 81.2851 179.242 81.354 179.244 81.4362L179.595 96.0844C179.597 96.1666 179.666 96.2323 179.748 96.2303L180.794 96.2052C180.876 96.2033 180.942 96.1344 180.94 96.0522L180.822 91.1196L185.456 91.0085L185.506 93.1198C185.514 93.4505 185.788 93.7113 186.118 93.7034L193.891 93.5171C194.222 93.5092 194.482 93.2356 194.474 92.9049L194.288 85.1323C194.28 84.8016 194.007 84.5408 193.676 84.5488ZM180.79 89.7744L180.639 83.4965L187.515 83.3317L187.665 89.6095L180.79 89.7744ZM193.111 92.1897L186.833 92.3402L186.801 90.9763L188.893 90.9261C188.976 90.9242 189.041 90.8553 189.039 90.7731L188.925 86.0087L192.961 85.9119L193.111 92.1897Z"/><path fill="#000" d="M272.996 71.7275C272.93 71.7275 272.863 71.7396 272.796 71.7672L262.853 75.7622H260.024C259.872 75.7622 259.748 75.8898 259.748 76.0485V81.2061C259.748 81.3648 259.872 81.4925 260.024 81.4925H261.779C261.715 81.6926 261.68 81.9047 261.68 82.1203C261.68 83.2571 262.608 84.1817 263.75 84.1817C264.706 84.1817 265.511 83.5331 265.749 82.6568L272.798 85.4892C272.865 85.5151 272.932 85.5289 272.998 85.5289C273.289 85.5289 273.55 85.2839 273.55 84.9562V72.3002C273.548 71.9724 273.289 71.7275 272.996 71.7275ZM263.75 82.9449C263.293 82.9449 262.922 82.5757 262.922 82.1203C262.922 81.9272 262.989 81.7426 263.112 81.596L264.576 82.1842C264.542 82.6085 264.185 82.9449 263.75 82.9449ZM272.306 83.9523L263.316 80.3402L263.093 80.2505H260.99V77.0041H263.093L263.316 76.9144L272.306 73.3024V83.9523Z"/><defs><clipPath id="clip0"><rect width="297.88" height="210.471" fill="#fff" transform="translate(28 85.5289)"/></clipPath></defs></svg>

<svg fill="none" viewBox="0 0 348 343"><rect width="348" height="342.465" fill="#35416B" rx="45.998"/><g fill-rule="evenodd" clip-path="url(#clip0)" clip-rule="evenodd"><path fill="#F78A01" d="M324.539 101.764L61.233 132.287l.168 163.374 38.09-5.352-.878-18.943 32.055-4.905-1.06-19.461 33.074-4.067-.878-19.982 33.016-4.281-.604-18.884 32.634-3.836-.241-20.839 32.778-3.76.195-20.56 32.063-3.649.319-20.25 33.049-3.606-.474-21.522z"/><path fill="#FFAE48" d="M325.555 101.907l-33.989-16.04L28.339 116.59l33.13 16.387 264.086-31.069z"/><path fill="#E17D00" d="M61.336 133.106l-32.47-16.325-.154 162.022 33.084 16.324-.46-162.021z"/><path fill="#FFE5B0" d="M194.254 179.49l.116 17.791 30.34-3.481-.17-18.228-30.286 3.918z" opacity=".5"/><path fill="#FFD98C" d="M161.522 183.874l.117 17.794 30.339-3.484-.17-18.225-30.286 3.915z" opacity=".5"/><path fill="#FFCA61" d="M129.159 188.662l.116 17.794 30.34-3.484-.171-18.228-30.285 3.918z" opacity=".5"/><path fill="#FFBD3A" d="M96.78 193.152l.116 17.788 30.339-3.481-.17-18.228-30.286 3.921z" opacity=".5"/><path fill="#FFB218" d="M64.177 197.75l.117 17.794 30.34-3.484-.15-18.228-30.307 3.918z" opacity=".5"/><path fill="#FFE5B0" d="M194.644 159.155l.114 17.792 30.34-3.484-.171-18.225-30.283 3.917z" opacity=".5"/><path fill="#FFD98C" d="M161.91 163.542l.116 17.791 30.34-3.484-.171-18.225-30.285 3.918z" opacity=".5"/><path fill="#FFCA61" d="M129.552 168.33l.116 17.791 30.34-3.484-.171-18.224-30.285 3.917z" opacity=".5"/><path fill="#FFBD3A" d="M97.17 172.82l.116 17.791 30.34-3.484-.163-18.211-30.294 3.904z" opacity=".5"/><path fill="#FFB218" d="M64.565 177.418l.122 17.797 30.34-3.481-.168-18.228-30.294 3.912z" opacity=".5"/><path fill="#FFF4DE" d="M259.633 130.766l.117 17.791 30.34-3.481-.171-18.228-30.286 3.918z" opacity=".5"/><path fill="#fff" d="M292.506 107.257l.117 17.791 30.339-3.481-.17-18.228-30.286 3.918z" opacity=".5"/><path fill="#FFF4DE" d="M259.75 111.261l.116 17.794 30.34-3.484-.17-18.227-30.286 3.917z" opacity=".5"/><path fill="#FFECC6" d="M227.178 115.694l.117 17.794 30.339-3.484-.17-18.228-30.286 3.918z" opacity=".5"/><path fill="#FFE5B0" d="M194.614 120.141l.117 17.791 30.339-3.481-.17-18.228-30.286 3.918z" opacity=".5"/><path fill="#FFD98C" d="M161.88 124.519l.116 17.794 30.34-3.484-.171-18.227-30.285 3.917z" opacity=".5"/><path fill="#FFCA61" d="M129.522 129.307l.116 17.791 30.34-3.481-.168-18.227-30.288 3.917z" opacity=".5"/><path fill="#FFBD3A" d="M97.14 133.797l.116 17.791 30.34-3.481-.163-18.233-30.294 3.923z" opacity=".5"/><path fill="#FFB218" d="M64.535 138.395l.117 17.792 30.34-3.482-.16-18.222-30.297 3.912z" opacity=".5"/><path fill="#FFECC6" d="M226.95 135.568l.117 17.791 30.34-3.481-.171-18.228-30.286 3.918zm.196 19.792l.116 17.791 30.34-3.481-.171-18.228-30.285 3.918z" opacity=".5"/><path fill="#FFE5B0" d="M194.617 139.634l.116 17.792 30.34-3.484-.17-18.225-30.286 3.917z" opacity=".5"/><path fill="#FFD98C" d="M161.885 144.019l.117 17.793 30.339-3.484-.17-18.227-30.286 3.918z" opacity=".5"/><path fill="#FFCA61" d="M129.524 148.807l.117 17.791 30.34-3.481-.171-18.228-30.286 3.918z" opacity=".5"/><path fill="#FFBD3A" d="M97.142 153.296l.117 17.792 30.339-3.482-.17-18.227-30.286 3.917z" opacity=".5"/><path fill="#FFB218" d="M64.538 157.895l.116 17.791 30.34-3.481-.17-18.228-30.286 3.918z" opacity=".5"/><path fill="#FFD98C" d="M161.338 203.463l.525 17.221 30.449-3.936-.632-17.133-30.342 3.848z" opacity=".5"/><path fill="#FFCA61" d="M128.98 208.251l.526 17.221 30.448-3.936-.631-17.133-30.343 3.848z" opacity=".5"/><path fill="#FFBD3A" d="M96.595 212.74l.526 17.222 30.448-3.936-.632-17.133-30.342 3.847z" opacity=".5"/><path fill="#FFB218" d="M63.99 217.339l.529 17.222 30.448-3.937-.631-17.133-30.346 3.848z" opacity=".5"/><path fill="#FFCA61" d="M129.159 227.441l.525 17.222 30.448-3.937-.633-17.13-30.34 3.845z" opacity=".5"/><path fill="#FFBD3A" d="M96.766 231.931l.541 17.221 30.449-3.936-.632-17.133-30.358 3.848z" opacity=".5"/><path fill="#FFB218" d="M64.164 236.529l.523 17.222 30.445-3.934-.631-17.133-30.337 3.845z" opacity=".5"/><path fill="#FFBD3A" d="M96.985 250.766l.528 17.221 30.446-3.936-.629-17.133-30.345 3.848z" opacity=".5"/><path fill="#FFB218" d="M64.383 255.364l.526 17.222 30.448-3.937-.631-17.132-30.343 3.847zm.547 19.052l.526 17.222 30.448-3.937-.631-17.13-30.343 3.845z" opacity=".5"/></g><path fill="#5D8ECC" fill-rule="evenodd" d="M66.254 69.916l.278 47.491 17.57 8.366-.449-46.852-17.4-9.005zm81.793-10.393l.279 47.492 17.569 8.366-.448-46.853-17.4-9.005zm79.715-8.083l.278 47.491 17.57 8.367-.446-46.853-17.402-9.005z" clip-rule="evenodd"/><path fill="#769FD1" fill-rule="evenodd" d="M83.503 78.976l40.787-4.894.423 47.555-40.747 4.169-.463-46.83zm81.796-10.393l40.784-4.893.416 47.554-40.739 4.17-.461-46.83zm79.714-8.083l40.792-4.893.416 47.554-40.752 4.167-.456-46.828z" clip-rule="evenodd"/><path fill="#9ABCE6" fill-rule="evenodd" d="M66.239 70.068l17.286 8.898 40.602-4.878-15.163-8.61-42.725 4.59zm81.793-10.392l17.287 8.897 40.601-4.878-15.159-8.611-42.729 4.592zm79.717-8.083l17.287 8.897 40.601-4.878L270.477 47l-42.728 4.593z" clip-rule="evenodd"/><path fill="#fff" fill-rule="evenodd" d="M93.1 82.476a5.191 5.191 0 00-4.677 5.212l.214 24.261a5.192 5.192 0 005.795 5.11l21.51-2.521a5.192 5.192 0 004.587-5.218l-.285-23.876a5.192 5.192 0 00-5.706-5.104l-21.439 2.136zm81.093-10.346a5.191 5.191 0 00-4.686 5.214l.218 24.266a5.19 5.19 0 005.785 5.111l22.078-2.543a5.19 5.19 0 004.597-5.22l-.291-23.877a5.192 5.192 0 00-5.697-5.103l-22.004 2.152zm81.09-8.716a5.19 5.19 0 00-4.692 5.215l.211 23.215a5.19 5.19 0 005.777 5.11l21.509-2.444a5.191 5.191 0 004.605-5.222l-.281-22.84a5.192 5.192 0 00-5.69-5.104l-21.439 2.07z" clip-rule="evenodd"/><path fill="#000" d="M111.641 90.786l-4.009 1.374a.17.17 0 00-.037.301l1.486.964-3.672 5.664-2.551-1.652a.337.337 0 00-.467.1l-5.226 8.065a.17.17 0 00.05.233l1.128.736a.17.17 0 00.234-.05l4.496-6.933 2.549 1.652a.34.34 0 00.467-.099l4.41-6.799 1.487.964a.171.171 0 00.179.003.167.167 0 00.063-.069.162.162 0 00.018-.091l-.382-4.22a.166.166 0 00-.223-.143zm82.035-6.237l-4.783.114-.051-2.11a.597.597 0 00-.612-.584l-7.623.182-.018-.747a.15.15 0 00-.153-.146l-1.046.025a.15.15 0 00-.146.153l.351 14.648a.15.15 0 00.153.146l1.046-.025a.15.15 0 00.146-.153l-.118-4.932 4.634-.112.05 2.112c.008.33.282.591.612.583l7.773-.186a.597.597 0 00.583-.612l-.186-7.773a.597.597 0 00-.612-.583zm-12.886 5.225l-.151-6.278 6.876-.164.15 6.278-6.875.164zm12.321 2.416l-6.278.15-.032-1.364 2.092-.05a.15.15 0 00.146-.153l-.114-4.764 4.036-.097.15 6.278zm79.885-20.462a.52.52 0 00-.2.04l-9.943 3.994h-2.829a.281.281 0 00-.276.287v5.157c0 .159.124.287.276.287h1.755c-.064.2-.099.412-.099.627 0 1.137.928 2.062 2.07 2.062.956 0 1.761-.649 1.999-1.525l7.049 2.832c.067.026.134.04.2.04a.564.564 0 00.552-.573V72.3a.566.566 0 00-.554-.572zm-9.246 11.217a.827.827 0 01-.828-.825c0-.193.067-.377.19-.524l1.464.588a.83.83 0 01-.826.76zm8.556 1.007l-8.99-3.612-.223-.09h-2.103v-3.246h2.103l.223-.09 8.99-3.612v10.65z"/><defs><clipPath id="clip0"><path fill="#fff" d="M0 0h297.88v210.471H0z" transform="translate(28 85.529)"/></clipPath></defs></svg>
